X: 339
T: Sirba Kodrilor (Forest Sirba)
R: sirba
Q: 1/4=150
B: German Goldenshteyn "Shpilt klezmorimlach klingen zoln di gesalach" New York 2003 v.3 #39
Z: 2013 John Chambers <jc:trillian.mit.edu>
M: 2/4
L: 1/8
K: G
|:\
zBc^c | de dc | B2 d2 | g2 a2 |\
b4- | b4- | b4- | b4 |\
(3(gfg) b2 | (3(d^cd) g2 | (3(B^AB) d2 | c3 B |
B A3- | A4- | A4- | A4 |\
ab ag | f3 e | de dc | Bddd |\
b3 a | a g3- | g4- | g4 :|
|: dd d2 | (3(bag) g2 | ee e2 | (3(c'ba) a2 |\
ab ag | f3 e | de dc | Bd dd |\
b3 a | a g3- | g4- |[1 gB c^c :|[2 g2 z2 |]
